!!!OTL@@DE: Bald prangt, den Morgen zu verk&uuml;nden
!!!COM: Mozart, Wolfgang Amadeus
!!!CDT: 1791
!!!OMD: Andante
!!!LYR: Em. Schikaneder
!!!OCL: Erk, Ludwig
!!!GCO: Deutscher Liederschatz, Band 2
**kern	**kern	**kern
*staff3	*staff2	*staff1
*Ipiano	*Ipiano	*Ivox
*clefF4	*clefG2	*clefG2
*k[]	*k[]	*k[]
*C:	*C:	*C:
*met(C)	*met(C)	*met(C)
*M4/4	*M4/4	*M4/4
4c\	4e/ 4g/	4g/
=1	=1	=1
4.c\	4.e/ 4.g/	4.g/
8d\	8f/ 8b/	8b\
8.e\L	8.g/ 8.cc/L	8.cc\
16c\Jk	16g/ 16b/Jk	16b\
8.f\L	8.a/L	8.a/
16d\Jk	16f/ 16dd/Jk	16dd\
=2	=2	=2
4G\	4e/ 4cc/	4cc\
(4G\	2d/ 2g/ 2b/	4b\
4F\)	.	4r
4E\	4c/ 4g/ 4cc/	4cc\
=3	=3	=3
4F\	4c/ 4a/ 4cc/	(4cc\
*	*^	*
4F\	(8a/L	4f\	8a/)
.	8dd/J)	.	8dd\
4G\	(8dd/L	4e\ 4g\	(8dd\L
.	8cc/J)	.	8cc\J)
4GG/	(8cc/L	4d\ 4f\	(8cc\L
.	8b/J)	.	8b\J)
*	*v	*v	*
=4	=4	=4
2.C/	(4d/ 4f/ 4b/	(4b\
.	2c/) 2e/ 2cc/	4cc\)
.	.	4r
4A\	4e/ 4cc/	4cc\
=5	=5	=5
4d\	4.f#/ 4.cc/	4.cc\
4d\	.	.
.	8f#/ 8a/	8a/
4d\	8.g/ 8.b/L	8.b\
.	16f#/ 16a/Jk	16a/
4d\	8.g/ 8.b/L	8.b\
.	16a/ 16cc/Jk	16cc\
=6	=6	=6
4d\	4g/ 4b/	4b\
4D\	2d/ 2f#/ 2a/	4a/
4C/	.	4r
4BB/	4d/ 4b/ 4dd/	4dd\
=7	=7	=7
*	*^	*
4C/	8b/ (8dd/L	4e\	(8dd\L
.	8a/ 8cc/J)	.	8cc\J)
4C/	8cc/ (8ee/L	4e\	(8ee\L
.	8a/ 8cc/J)	.	8cc\J)
4D\	8a/ (8cc/L	4.d\	(8cc\L
.	8g/ 8b/J)	.	8b\J)
4D\	8a/ (8cc/L	.	(8cc\L
.	8f#/ 8a/J)	8c\	8a\J)
*	*v	*v	*
=8	=8	=8
8GG\L	4c/ 4f#/ (4a/	(4a/
8G\	.	.
8GG\	&(4B/&) 4g/)	4g/)
8G\J	.	.
8GG\L	4r	4r
8G\	.	.
8GG\	4g/	4g/
8G\J	.	.
=9	=9	=9
8GG\L	4.g/	4.g/
8G\	.	.
8GG\	.	.
8G\J	8f#/ 8a/	8a/
8GG\L	(8fn/ 8b/L	8b\
8G\	8e/ 8cc/	8cc\
8GG\	8f/ 8dd/	8dd\
8G\J	8e/) 8cc/J	8cc\
=10	=10	=10
8GG\L	8e/ 8g/ 8cc/L	(8cc\L
8G\	8d/ 8f/ 8b/J	8b\J)
*	*^	*
8GG\	4.b/	2d\ 2f\	4.b\
8G\J	.	.	.
8GG\L	.	.	.
8G\	16cc/LL	.	(16cc\LL
.	16b/JJ	.	16b\JJ)
8GG\	8f/ 8a/L	4c\	8a/
8G\J	8g/J	.	8g/
*	*v	*v	*
=11	=11	=11
8GG\L	(4c/ 4e/ 4g/	(4g/
8G\	.	.
8GG\	8g/) 8cc/L	8cc\)
8G\J	8e/ 8g/J	8g/
8GG\L	(8e/ 8g/L	(8g/L
8G\	8d/) 8f/J	8f/J)
8GG\	(8d/ 8f/L	(8f/L
8G\J	8c/) 8e/J	8e/J)
=12	=12	=12
4GG/	8.e/ 8.g/L	(8.g/L
.	16c/ 16e/Jk	16e/Jk)
8.G\L	4B/ 4d/	4d/
16A\Jk	.	.
8G\L	4r	4r
8F\	.	.
8E\	4d/ 4g/	4g/
8D\J	.	.
=13	=13	=13
4C/	4.e/ 4.g/	4.g/
8.c\L	.	.
.	8f/ 8b/	8b\
16d\Jk	.	.
8.e\L	8.g/ 8.cc/L	8.cc\
16c\Jk	16e/ 16b/Jk	16b\
8.f\L	8.a/L	8.a/
16d\Jk	16f/ 16dd/Jk	16dd\
=14	=14	=14
4G\	4e/ 4cc/	(4cc\
(4G\	2d/ 2g/ 2b/	4b\)
4F\)	.	4r
4E\	4c/ 4g/ 4cc/	4cc\
=15	=15	=15
8.F\L	8.c/ 8.f/ 8.a/L	8.a/
16D\Jk	16d/ 16f/ 16b/Jk	16b\
8.E\L	8.c/ 8.g/ 8.cc/L	8.cc\
16F\Jk	16f/ 16a/ 16dd/Jk	16dd\
4G\	4e/ 4g/ 4cc/	4cc\
4GG/	4d/ 4g/ 4b/	4b\
=16	=16	=16
8r	2.g\ 2.b\ 2.dd\ 2.ff\	2ff^\
8GG/L	.	.
8BB/	.	.
8D/J	.	.
(8G\L	.	4r
8d\J	.	.
16c\LL	4f/ 4g/ 4dd/	4dd\
16B\	.	.
16A\	.	.
16G\JJ)	.	.
=17	=17	=17
8.c\L	8.e/ 8.g/ 8.ee/L	8.ee\
16G\Jk	16d/ 16f/ 16b/Jk	16b\
8.A\L	8.c/ 8.e/ 8.cc/L	8.cc\
16F\Jk	16f/ 16a/ 16dd/Jk	16dd\
4G\	4e/ 4g/ 4cc/	4cc\
4GG/ 4G/	4d/ 4g/ 4b/	4b\
=18	=18	=18
2C\ 2G\ 2c\	2e/ 2g/ 2cc/	2cc\
4r	4r	4r
==	==	==
*-	*-	*-
!!!ENC: Craig Stuart Sapp
!!!END: 2004/05/19/
!!!EFL: 214/600
